X: 189
T: Geraldine's Daughter
N:"Slow"
B:O'Neill's 189
Z:Transcribed by henrik.norbeck@mailbox.swipnet.se
M:3/4
L:1/8
K:G
D>E|(G3 A) (B>A)|G4 (G>A)|B>c d2 d>c|B2 B2 e>f|
g z g2 (f>e)|d2 (d>c) (B>c)|d g3 (g>a)|g4 g2||
=f e3 (d>c)|B2 B2 d2|e>f g>a b>a|g g3 (e/d/c)|
B2 A2 G2|F2 G>A B>c|d2 c>B A>G|G G3||


